X:16
T:Tá an Coileach Ag Fógairt an Lae
S:Seán Gavin
R:jig
M:6/8
L:1/8
K:G
D | GAB BAG | d3 d2D | GAB BAG | A3 A2D |
GAB BAG | Bcd efg | dBG AFD | G3 G2D :|
d |: gdd gdd | c3 c2d | gdd gdB | A3 A2d |
gdd gdd | Bcd efg | dBG AFD | G3 G2 :|

